icons/filled/alert-circle.svg

<svg xmlns="http://www.w3.org/2000/svg" width="24" height="24" viewBox="0 0 24 24" fill="currentColor"><path d="M12 2c5.523 0 10 4.477 10 10a10 10 0 0 1 -19.995 .324l-.005 -.324l.004 -.28c.148 -5.393 4.566 -9.72 9.996 -9.72zm.01 13l-.127 .007a1 1 0 0 0 0 1.986l.117 .007l.127 -.007a1 1 0 0 0 0 -1.986l-.117 -.007zm-.01 -8a1 1 0 0 0 -.993 .883l-.007 .117v4l.007 .117a1 1 0 0 0 1.986 0l.007 -.117v-4l-.007 -.117a1 1 0 0 0 -.993 -.883z"/></svg>

<svg xmlns="http://www.w3.org/2000/svg" width="24" height="24" fill="currentColor"><path d="M12 2c5.523 0 10 4.477 10 10a10 10 0 0 1-19.995.324L2 12l.004-.28C2.152 6.327 6.57 2 12 2m.01 13-.127.007a1 1 0 0 0 0 1.986L12 17l.127-.007a1 1 0 0 0 0-1.986zM12 7a1 1 0 0 0-.993.883L11 8v4l.007.117a1 1 0 0 0 1.986 0L13 12V8l-.007-.117A1 1 0 0 0 12 7"/></svg>
